X: 49
T:The Mourne Shore
M:C
L:1/4
B:"O'Neill's 49"
N:"Moderate" "collected by J. O'Neill"
Z:"Transcribed by Norbert Paap, norbertp@bdu.uva.nl"
K:F
F/2G/2|\
A G/2F/2 G/2AGF/2G/2A/2|c2 d f/2c/2|d c/2A/2G F|D2 C F/2G/2|
A G/2F/2 G/2AGF/2G/2A/2|c2 d f/2c/2|d c/2A/2 .G-.F|F3||
c|\
f e/2c/2 d f|e c A A/2c/2|d c/2A/2 c/2d/2f/2g/2|f2 F/2G/2|
A G/2F/2 G/2AGF/2G/2A/2|c2 d f/2c/2|d c/2A/2 .G-.F|F3||
